images/Black and White Collection 1.svg

<svg width="64" height="71" viewBox="0 0 64 71" fill="none" xmlns="http://www.w3.org/2000/svg">
<path d="M32 48.3379C30.0535 48.3466 28.1327 47.875 26.3952 46.962C24.6578 46.0489 23.153 44.7204 22.0046 43.0854L14 47.8682C14.3046 48.2335 14.6652 48.5437 15.0673 48.7863L29.3113 57.327C30.1438 57.7694 31.0652 58 32 58C32.9348 58 33.8562 57.7694 34.6887 57.327L48.9327 48.7863C49.3348 48.5437 49.6954 48.2335 50 47.8682L42.016 43C40.8743 44.6537 39.3703 46.0005 37.6284 46.9288C35.8866 47.8571 33.9571 48.3402 32 48.3379Z" fill="#414042"/>
<path d="M19.4673 35.449C19.4746 32.4125 20.6548 29.485 22.7823 27.2261C24.9098 24.9672 27.8355 23.5353 31 23.2041V14C30.5199 14.0952 30.058 14.2604 29.6306 14.4898L14.7815 22.6531C13.9744 23.1681 13.3033 23.8543 12.8208 24.6581C12.3382 25.4618 12.0573 26.3611 12 27.2857V43.6122C12.0066 44.0833 12.0858 44.551 12.2353 45L20.58 40.4082C19.8503 38.8473 19.4713 37.158 19.4673 35.449Z" fill="#414042"/>
<path d="M49.3649 22.6474L35.2973 14.4895C34.8925 14.2602 34.4549 14.0951 34 14V23.1776C35.9111 23.3955 37.7447 24.0617 39.3531 25.1229C40.9615 26.184 42.2998 27.6103 43.2602 29.2869C44.2206 30.9635 44.7762 32.8436 44.8824 34.7758C44.9886 36.708 44.6424 38.6382 43.8716 40.4112L51.7771 45C51.9187 44.5512 51.9938 44.0839 52 43.6132V27.2974C51.9488 26.3699 51.6841 25.4671 51.2268 24.6601C50.7694 23.8531 50.1321 23.1641 49.3649 22.6474Z" fill="#414042"/>
<path d="M59.6116 14.4711L36.3885 1.0403C35.0266 0.356198 33.5238 0 32 0C30.4762 0 28.9736 0.356198 27.6116 1.0403L4.3884 14.4711C3.1137 15.3027 2.0524 16.4228 1.29 17.7409C0.527701 19.059 0.0858 20.5381 0 22.0587V48.9202C0.0842 50.4441 0.525301 51.9268 1.2876 53.2485C2.0499 54.5703 3.1121 55.694 4.3884 56.5289L27.6116 69.96C28.9736 70.644 30.4762 71 32 71C33.5238 71 35.0266 70.644 36.3885 69.96L59.6116 56.5289C60.8879 55.694 61.9501 54.5703 62.7124 53.2485C63.4747 51.9268 63.9158 50.4441 64 48.9202V22.0587C63.9142 20.5381 63.4723 19.059 62.71 17.7409C61.9476 16.4228 60.8863 15.3027 59.6116 14.4711ZM56.6299 45.8305C56.5617 47.0012 56.2204 48.1395 55.6333 49.1542C55.0463 50.169 54.2298 51.0318 53.2493 51.6737L35.3595 62.0147C34.3145 62.543 33.1602 62.8183 31.9895 62.8183C30.8188 62.8183 29.6644 62.543 28.6195 62.0147L10.7507 51.6737C9.7702 51.0318 8.9537 50.169 8.3667 49.1542C7.7796 48.1395 7.4383 47.0012 7.3701 45.8305V25.1695C7.4383 23.9988 7.7796 22.8605 8.3667 21.8458C8.9537 20.831 9.7702 19.9681 10.7507 19.3263L28.5984 8.9853C29.6434 8.457 30.7977 8.1817 31.9685 8.1817C33.1392 8.1817 34.2936 8.457 35.3386 8.9853L53.2283 19.3263C54.2126 19.9658 55.0333 20.8277 55.6241 21.8426C56.2149 22.8574 56.5594 23.997 56.6299 25.1695V45.8305Z" fill="#414042"/>
<path d="M23 35.5C23 37.1811 23.5278 38.8245 24.5167 40.2223C25.5056 41.6202 26.9113 42.7096 28.5559 43.353C30.2004 43.9963 32.01 44.1646 33.7559 43.8367C35.5017 43.5087 37.1053 42.6992 38.3639 41.5104C39.6226 40.3217 40.4798 38.8071 40.8271 37.1583C41.1743 35.5094 40.9961 33.8004 40.3149 32.2472C39.6337 30.694 38.4803 29.3665 37.0002 28.4325C35.5202 27.4985 33.78 27 32 27C29.6131 27 27.3239 27.8955 25.6361 29.4896C23.9482 31.0837 23 33.2457 23 35.5Z" fill="#414042"/>
</svg>

<svg width="64" height="71" fill="none" xmlns="http://www.w3.org/2000/svg"><path d="M32 48.338a11.926 11.926 0 0 1-5.605-1.376 12.457 12.457 0 0 1-4.39-3.877L14 47.868c.305.365.665.676 1.067.918l14.244 8.541A5.725 5.725 0 0 0 32 58c.935 0 1.856-.23 2.689-.673l14.244-8.54A4.248 4.248 0 0 0 50 47.867L42.016 43a12.466 12.466 0 0 1-4.388 3.929A11.929 11.929 0 0 1 32 48.338ZM19.467 35.449c.008-3.036 1.188-5.964 3.315-8.223 2.128-2.259 5.053-3.69 8.218-4.022V14a4.92 4.92 0 0 0-1.37.49l-14.848 8.163a6.121 6.121 0 0 0-1.961 2.005A5.798 5.798 0 0 0 12 27.286v16.326c.007.471.086.939.235 1.388l8.345-4.592a11.767 11.767 0 0 1-1.113-4.959ZM49.365 22.647 35.297 14.49A4.5 4.5 0 0 0 34 14v9.178c1.911.217 3.745.884 5.353 1.945a12.328 12.328 0 0 1 3.907 4.164 12.426 12.426 0 0 1 .611 11.124L51.778 45A4.82 4.82 0 0 0 52 43.613V27.297a6.023 6.023 0 0 0-.773-2.637 5.982 5.982 0 0 0-1.862-2.013Z" fill="#414042"/><path d="M59.612 14.471 36.388 1.041a9.777 9.777 0 0 0-8.776 0L4.388 14.47A9.706 9.706 0 0 0 0 22.06V48.92a9.739 9.739 0 0 0 4.388 7.609L27.612 69.96a9.778 9.778 0 0 0 8.777 0l23.223-13.431A9.726 9.726 0 0 0 64 48.92V22.06a9.718 9.718 0 0 0-4.388-7.588Zm-2.982 31.36a7.509 7.509 0 0 1-3.38 5.843l-17.89 10.34a7.47 7.47 0 0 1-6.74 0l-17.87-10.34a7.5 7.5 0 0 1-3.38-5.843V25.169a7.509 7.509 0 0 1 3.38-5.843l17.848-10.34a7.47 7.47 0 0 1 6.74 0l17.89 10.34a7.5 7.5 0 0 1 3.402 5.843v20.662Z" fill="#414042"/><path d="M23 35.5c0 1.681.528 3.325 1.517 4.722a8.91 8.91 0 0 0 4.039 3.131 9.494 9.494 0 0 0 5.2.484 9.175 9.175 0 0 0 4.608-2.327 8.365 8.365 0 0 0 2.463-4.352 8.063 8.063 0 0 0-.512-4.91A8.624 8.624 0 0 0 37 28.432 9.381 9.381 0 0 0 32 27c-2.387 0-4.676.895-6.364 2.49C23.948 31.084 23 33.246 23 35.5Z" fill="#414042"/></svg>
